icon/pk/court.svg

<svg viewBox="0 0 48 48" fill="none" xmlns="http://www.w3.org/2000/svg" height="1em" width="1em">
  <path d="M24 36H44V12H4V36H24ZM24 36V28M24 12V20" stroke="black" stroke-width="4" stroke-linecap="round" stroke-linejoin="round"/>
  <circle cx="24" cy="24" r="4" stroke="black" stroke-width="4" stroke-linecap="round" stroke-linejoin="round"/>
  <path d="M11 24C11 26.2091 9.20914 28 7 28H4V20H7C9.20914 20 11 21.7909 11 24Z" stroke="black" stroke-width="4" stroke-linecap="round" stroke-linejoin="round"/>
  <path d="M37 24C37 26.2091 38.7909 28 41 28H44V20H41C38.7909 20 37 21.7909 37 24Z" stroke="black" stroke-width="4" stroke-linecap="round" stroke-linejoin="round"/>
</svg>

<svg width="48" height="48" fill="none" xmlns="http://www.w3.org/2000/svg"><path d="M24 36h20V12H4v24h20Zm0 0v-8m0-16v8" stroke="#000" stroke-width="4" stroke-linecap="round" stroke-linejoin="round"/><circle cx="24" cy="24" r="4" stroke="#000" stroke-width="4" stroke-linecap="round" stroke-linejoin="round"/><path d="M11 24a4 4 0 0 1-4 4H4v-8h3a4 4 0 0 1 4 4ZM37 24a4 4 0 0 0 4 4h3v-8h-3a4 4 0 0 0-4 4Z" stroke="#000" stroke-width="4" stroke-linecap="round" stroke-linejoin="round"/></svg>
